X: 1
T: Patrick's
M: 4/4
L: 1/8
R: reel
K: Edor
EFGF E2 B2 | B2 A2 G2 E2 | DEFE D2 A2 | A2 G2 F2 D2 |
EFGF E2 B2 | B2 C2 D2 B2 | ABAG F2 D2 | E4 E2 z2 |
e4 e4 | B2 B2 e4 | d4 d4 | A2 A2 d4 | e4 e4 |
B2 B2 A2 B2 | d2 B2 A2 F2 | E4 E4 |
EFGF E2 B2 | B2 A2 G2 E2 | DEFE D2 A2 | A2 G2 F2 D2 |
EFGF E2 B2 | B2 C2 D2 B2 | ABAG F2 D2 | E4 E4 |
